packages/icons/src/assets/italic.svg

<svg width="16" height="16" viewBox="0 0 16 16" fill="none" xmlns="http://www.w3.org/2000/svg"><path d="M3.79999 13.5L4.06128 12.2949H6.3361L8.10369 3.90516H5.82888L6.09017 2.70001H12.1L11.8387 3.90516H9.54851L7.78091 12.2949H10.0711L9.8098 13.5H3.79999Z" fill="currentColor"/></svg>

<svg xmlns="http://www.w3.org/2000/svg" width="16" height="16" viewBox="0 0 16 16"><path d="m3.8 13.5.261-1.205h2.275l1.768-8.39H5.829L6.09 2.7h6.01l-.261 1.205h-2.29l-1.768 8.39h2.29L9.81 13.5z"/></svg>
